X: 4980
T: Brendan McCann's Visit
R: reel
M: 4/4
K: Gmajor
|dB B2 dGBd|cBcd e2 ge|dB B2 dGBG|A2 FA DAFA|
dB B2 dGBd|cBcd efge|dGBd gdBG|FGAF GABc||
d3e dGBd|cBcd e3f|g2gf gdBG|A3 F DFAd|
BG ~G2 DGBd|cGGG EGce|dGBd gdBG|FGAF GABc||
dB B2 dBgB|aged efge|dB B2 dBGB|cABG ABce|
dB B2 dBgB|agef g3 e|dG (3Bcd gdBG|FGAF G2 Bc||
dB B2 dBgB|aged efge|dB B2 DGBd|cAA^G ABce|
dB B2 dBgB|agef g3 e|dG (3Bcd gdBG|FGAF G2 Bc||

